img/icons/sidemenu.svg

<?xml version="1.0" encoding="utf-8"?>
<!-- Generated by IcoMoon.io -->
<!DOCTYPE svg PUBLIC "-//W3C//DTD SVG 1.1//EN" "http://www.w3.org/Graphics/SVG/1.1/DTD/svg11.dtd">
<svg version="1.1" xmlns="http://www.w3.org/2000/svg" xmlns:xlink="http://www.w3.org/1999/xlink" width="32" height="32" viewBox="0 0 32 32">
<g id="icomoon-ignore">
  <line stroke-width="1" x1="" y1="" x2="" y2="" stroke="#449FDB" opacity=""></line>
</g>
  <path d="M8 12h4v-4h-4v4zM8 18h4v-4h-4v4zM8 24h4v-4h-4v4zM14 8v4h10v-4h-10zM14 18h10v-4h-10v4zM14 24h10v-4h-10v4z" fill="#000000"></path>
</svg>

<svg xmlns="http://www.w3.org/2000/svg" width="32" height="32" viewBox="0 0 32 32"><path stroke="#449FDB" d="M0 0"/><path d="M8 12h4V8H8v4zm0 6h4v-4H8v4zm0 6h4v-4H8v4zm6-16v4h10V8H14zm0 10h10v-4H14v4zm0 6h10v-4H14v4z"/></svg>
